X:10
T:Reel 10
M:4/4
K:Cmaj
L:1/8
cA|GEcA GAGE|CEGE D2DA|GEGc AFAc|BGAB c2cA|GEcA GAGE|CEGE D2DA|GEGc AFAc|BGAB cdef|g2ec egec| (3efg ec d2de|fede fagf|edcB cdef|g2ec  (3efg ec| (3efg ec d2de|fede fagf|edcB c2|
